images/icon-menu.svg

<svg height="42" viewBox="0 0 42 42" width="42" xmlns="http://www.w3.org/2000/svg"><path d="m14 12h-14v-2h14zm0-5h-14v-2h14zm0-5h-14v-2h14z" fill="#fff" fill-rule="evenodd" transform="translate(14 13)"/></svg>

<?xml version="1.0" encoding="UTF-8" standalone="no"?>
<svg width="42px" height="42px" viewBox="0 0 42 42" version="1.1" xmlns="http://www.w3.org/2000/svg" xmlns:xlink="http://www.w3.org/1999/xlink">
    <!-- Generator: Sketch 3.6.1 (26313) - http://www.bohemiancoding.com/sketch -->
    <title>icon-menu</title>
    <desc>Created with Sketch.</desc>
    <defs></defs>
    <g id="Page-1" stroke="none" stroke-width="1" fill="none" fill-rule="evenodd">
        <g id="icon-menu" fill="#FFFFFF">
            <g transform="translate(14.000000, 13.000000)" id="Shape">
                <path d="M14,12 L0,12 L0,10 L14,10 L14,12 L14,12 Z M14,7 L0,7 L0,5 L14,5 L14,7 L14,7 Z M14,2 L0,2 L0,0 L14,0 L14,2 L14,2 Z"></path>
            </g>
        </g>
    </g>
</svg>
